X: 1293
T: Bobbing Joan (Em)
C:trad English (C.1650)
B: australian traditional tunes wiki
M:3/4
L:1/8
Q: 1/4=100
K:Em
V:1 
"Em"BG GE G2|BG GE "D"FA|"Em"BG GEG2|"D"D/2E/2F/2G/2 AD FA:|
"G"GB dGB2|GB dG Bd|"Em"ec "G"dB"D"A2|DF AD FA:|
% abcbook-tune_id 6342d53a97bf18f522ec74c8


% abcbook-boost 0
% abcbook-tablature 
% abcbook-transpose 
% abcbook-lastupdated 1665324357752
% abcbook-soundfonts 
% abcbook-repeats 1
% NFF Book 2020

